client/src/all-icon/mobile-bar/qrcode.svg

<svg width="60" height="60" viewBox="0 0 60 60" fill="none" xmlns="http://www.w3.org/2000/svg">
<path d="M30 60C46.5685 60 60 46.5685 60 30C60 13.4315 46.5685 0 30 0C13.4315 0 0 13.4315 0 30C0 46.5685 13.4315 60 30 60Z" fill="url(#paint0_linear_301_187)"/>
<path fill-rule="evenodd" clip-rule="evenodd" d="M26.6006 19.4391V24.1667C26.6006 24.3414 26.5661 24.5144 26.4993 24.6758C26.4324 24.8372 26.3344 24.9839 26.2109 25.1074C26.0874 25.2309 25.9407 25.3289 25.7793 25.3958C25.6179 25.4626 25.4449 25.497 25.2702 25.497H20.5426C20.3679 25.497 20.1949 25.4626 20.0335 25.3958C19.8721 25.3289 19.7255 25.2309 19.6019 25.1074C19.4784 24.9839 19.3804 24.8372 19.3135 24.6758C19.2467 24.5144 19.2123 24.3414 19.2123 24.1667V19.4391C19.2123 19.0863 19.3524 18.7479 19.6019 18.4984C19.8514 18.2489 20.1898 18.1088 20.5426 18.1088H25.2702C25.623 18.1088 25.9614 18.2489 26.2109 18.4984C26.4604 18.7479 26.6006 19.0863 26.6006 19.4391ZM28.6695 24.1667V19.4391C28.6698 18.9926 28.582 18.5505 28.4113 18.1379C28.2406 17.7254 27.9902 17.3505 27.6745 17.0348C27.3588 16.7191 26.9839 16.4687 26.5714 16.298C26.1588 16.1273 25.7167 16.0395 25.2702 16.0398H20.5426C20.0961 16.0395 19.654 16.1273 19.2414 16.298C18.8289 16.4687 18.454 16.7191 18.1383 17.0348C17.8226 17.3505 17.5722 17.7254 17.4015 18.1379C17.2308 18.5505 17.143 18.9926 17.1433 19.4391V24.1667C17.143 24.6132 17.2308 25.0553 17.4015 25.4679C17.5722 25.8804 17.8226 26.2553 18.1383 26.571C18.454 26.8867 18.8289 27.1371 19.2414 27.3078C19.654 27.4785 20.0961 27.5663 20.5426 27.566H25.2702C25.7167 27.5663 26.1588 27.4785 26.5714 27.3078C26.9839 27.1371 27.3588 26.8867 27.6745 26.571C27.9902 26.2553 28.2406 25.8804 28.4113 25.4679C28.582 25.0553 28.6698 24.6132 28.6695 24.1667Z" fill="white"/>
<path fill-rule="evenodd" clip-rule="evenodd" d="M26.6006 33.6261V38.3537C26.6006 38.7065 26.4604 39.0449 26.2109 39.2944C25.9614 39.5439 25.623 39.6841 25.2702 39.6841H20.5426C20.1898 39.6841 19.8514 39.5439 19.6019 39.2944C19.3524 39.0449 19.2123 38.7065 19.2123 38.3537V33.6261C19.2123 33.2733 19.3524 32.9349 19.6019 32.6854C19.8514 32.4359 20.1898 32.2958 20.5426 32.2958H25.2702C25.623 32.2958 25.9614 32.4359 26.2109 32.6854C26.4604 32.9349 26.6006 33.2733 26.6006 33.6261ZM28.6695 38.3537V33.6261C28.6698 33.1796 28.582 32.7375 28.4113 32.3249C28.2406 31.9124 27.9902 31.5375 27.6745 31.2218C27.3588 30.9061 26.9839 30.6557 26.5714 30.485C26.1588 30.3143 25.7167 30.2265 25.2702 30.2268H20.5426C20.0961 30.2265 19.654 30.3143 19.2414 30.485C18.8289 30.6557 18.454 30.9061 18.1383 31.2218C17.8226 31.5375 17.5722 31.9124 17.4015 32.3249C17.2308 32.7375 17.143 33.1796 17.1433 33.6261V38.3537C17.143 38.8002 17.2308 39.2423 17.4015 39.6549C17.5722 40.0674 17.8226 40.4423 18.1383 40.758C18.454 41.0737 18.8289 41.3241 19.2414 41.4948C19.654 41.6655 20.0961 41.7533 20.5426 41.753H25.2702C25.7167 41.7533 26.1588 41.6655 26.5714 41.4948C26.9839 41.3241 27.3588 41.0737 27.6745 40.758C27.9902 40.4423 28.2406 40.0674 28.4113 39.6549C28.582 39.2423 28.6698 38.8002 28.6695 38.3537Z" fill="white"/>
<path fill-rule="evenodd" clip-rule="evenodd" d="M40.7876 19.4391V24.1667C40.7876 24.3414 40.7532 24.5144 40.6863 24.6758C40.6194 24.8372 40.5214 24.9839 40.3979 25.1074C40.2744 25.2309 40.1277 25.3289 39.9663 25.3958C39.8049 25.4626 39.6319 25.497 39.4572 25.497H34.7296C34.5549 25.497 34.3819 25.4626 34.2205 25.3958C34.0591 25.3289 33.9125 25.2309 33.7889 25.1074C33.6654 24.9839 33.5674 24.8372 33.5006 24.6758C33.4337 24.5144 33.3993 24.3414 33.3993 24.1667V19.4391C33.3993 19.0863 33.5395 18.7479 33.7889 18.4984C34.0384 18.2489 34.3768 18.1088 34.7296 18.1088H39.4572C39.6319 18.1088 39.8049 18.1432 39.9663 18.21C40.1277 18.2769 40.2744 18.3749 40.3979 18.4984C40.5214 18.6219 40.6194 18.7686 40.6863 18.93C40.7532 19.0914 40.7876 19.2644 40.7876 19.4391ZM42.8565 24.1667V19.4391C42.8568 18.9926 42.7691 18.5505 42.5983 18.1379C42.4276 17.7254 42.1772 17.3505 41.8615 17.0348C41.5458 16.7191 41.1709 16.4687 40.7584 16.298C40.3459 16.1273 39.9037 16.0395 39.4572 16.0398H34.7296C34.2832 16.0395 33.841 16.1273 33.4285 16.298C33.0159 16.4687 32.6411 16.7191 32.3254 17.0348C32.0096 17.3505 31.7593 17.7254 31.5885 18.1379C31.4178 18.5505 31.3301 18.9926 31.3303 19.4391V24.1667C31.3301 24.6132 31.4178 25.0553 31.5885 25.4679C31.7593 25.8804 32.0096 26.2553 32.3254 26.571C32.6411 26.8867 33.0159 27.1371 33.4285 27.3078C33.841 27.4785 34.2832 27.5663 34.7296 27.566H39.4572C39.9037 27.5663 40.3459 27.4785 40.7584 27.3078C41.1709 27.1371 41.5458 26.8867 41.8615 26.571C42.1772 26.2553 42.4276 25.8804 42.5983 25.4679C42.7691 25.0553 42.8568 24.6132 42.8565 24.1667Z" fill="white"/>
<path fill-rule="evenodd" clip-rule="evenodd" d="M25.2704 11.3103H18.178C16.6492 11.3103 15.1831 11.9176 14.1021 12.9986C13.0211 14.0796 12.4138 15.5457 12.4138 17.0744V24.1669C12.4138 24.4412 12.5228 24.7043 12.7168 24.8983C12.9108 25.0923 13.1739 25.2013 13.4483 25.2013C13.7227 25.2013 13.9858 25.0923 14.1798 24.8983C14.3738 24.7043 14.4828 24.4412 14.4828 24.1669V17.0744C14.4825 16.5891 14.5779 16.1085 14.7635 15.66C14.9491 15.2116 15.2213 14.8041 15.5645 14.461C15.9077 14.1178 16.3151 13.8456 16.7636 13.66C17.212 13.4744 17.6926 13.379 18.178 13.3793H25.2704C25.5447 13.3793 25.8079 13.2703 26.0019 13.0763C26.1959 12.8823 26.3049 12.6191 26.3049 12.3448C26.3049 12.0704 26.1959 11.8073 26.0019 11.6133C25.8079 11.4193 25.5447 11.3103 25.2704 11.3103Z" fill="white"/>
<path fill-rule="evenodd" clip-rule="evenodd" d="M12.4138 33.626V40.7185C12.4138 42.2472 13.0211 43.7133 14.1021 44.7943C15.1831 45.8753 16.6492 46.4826 18.178 46.4826H25.2704C25.5447 46.4826 25.8079 46.3736 26.0019 46.1796C26.1959 45.9856 26.3049 45.7225 26.3049 45.4481C26.3049 45.1737 26.1959 44.9106 26.0019 44.7166C25.8079 44.5226 25.5447 44.4136 25.2704 44.4136H18.178C17.6926 44.4139 17.212 44.3185 16.7636 44.1329C16.3151 43.9473 15.9077 43.6751 15.5645 43.3319C15.2213 42.9888 14.9491 42.5813 14.7635 42.1329C14.5779 41.6844 14.4825 41.2038 14.4828 40.7185V33.626C14.4828 33.3517 14.3738 33.0886 14.1798 32.8945C13.9858 32.7005 13.7227 32.5916 13.4483 32.5916C13.1739 32.5916 12.9108 32.7005 12.7168 32.8945C12.5228 33.0886 12.4138 33.3517 12.4138 33.626Z" fill="white"/>
<path fill-rule="evenodd" clip-rule="evenodd" d="M34.7296 46.4826H41.822C42.5789 46.4826 43.3285 46.3335 44.0278 46.0438C44.7271 45.7541 45.3626 45.3296 45.8978 44.7943C46.4331 44.2591 46.8577 43.6236 47.1473 42.9243C47.437 42.225 47.5861 41.4754 47.5861 40.7185V33.626C47.5861 33.3517 47.4771 33.0886 47.2831 32.8945C47.0891 32.7005 46.826 32.5916 46.5516 32.5916C46.2773 32.5916 46.0141 32.7005 45.8201 32.8945C45.6261 33.0886 45.5171 33.3517 45.5171 33.626V40.7185C45.5174 41.2038 45.422 41.6844 45.2364 42.1329C45.0508 42.5813 44.7786 42.9888 44.4355 43.3319C44.0923 43.6751 43.6848 43.9473 43.2364 44.1329C42.7879 44.3185 42.3073 44.4139 41.822 44.4136H34.7296C34.4552 44.4136 34.1921 44.5226 33.9981 44.7166C33.8041 44.9106 33.6951 45.1737 33.6951 45.4481C33.6951 45.7225 33.8041 45.9856 33.9981 46.1796C34.1921 46.3736 34.4552 46.4826 34.7296 46.4826Z" fill="white"/>
<path fill-rule="evenodd" clip-rule="evenodd" d="M47.5861 24.1669V17.0744C47.5861 16.3175 47.437 15.5679 47.1473 14.8686C46.8577 14.1693 46.4331 13.5338 45.8978 12.9986C45.3626 12.4633 44.7271 12.0387 44.0278 11.7491C43.3285 11.4594 42.5789 11.3103 41.822 11.3103H34.7296C34.4552 11.3103 34.1921 11.4193 33.9981 11.6133C33.8041 11.8073 33.6951 12.0704 33.6951 12.3448C33.6951 12.6191 33.8041 12.8823 33.9981 13.0763C34.1921 13.2703 34.4552 13.3793 34.7296 13.3793H41.822C42.3073 13.379 42.7879 13.4744 43.2364 13.66C43.6848 13.8456 44.0923 14.1178 44.4355 14.461C44.7786 14.8041 45.0508 15.2116 45.2364 15.66C45.422 16.1085 45.5174 16.5891 45.5171 17.0744V24.1669C45.5171 24.4412 45.6261 24.7043 45.8201 24.8983C46.0141 25.0923 46.2773 25.2013 46.5516 25.2013C46.826 25.2013 47.0891 25.0923 47.2831 24.8983C47.4771 24.7043 47.5861 24.4412 47.5861 24.1669Z" fill="white"/>
<path fill-rule="evenodd" clip-rule="evenodd" d="M41.822 30.7483H34.7296C34.2833 30.748 33.8413 30.8357 33.4289 31.0063C33.0165 31.1769 32.6418 31.4271 32.3261 31.7426C32.0104 32.0581 31.76 32.4327 31.5891 32.845C31.4183 33.2573 31.3303 33.6992 31.3303 34.1455V40.7186C31.3303 40.993 31.4393 41.2561 31.6333 41.4501C31.8273 41.6441 32.0904 41.7531 32.3648 41.7531C32.6392 41.7531 32.9023 41.6441 33.0963 41.4501C33.2903 41.2561 33.3993 40.993 33.3993 40.7186V34.1455C33.3993 33.9709 33.4337 33.798 33.5006 33.6367C33.5675 33.4755 33.6655 33.3289 33.7891 33.2056C33.9126 33.0822 34.0593 32.9844 34.2207 32.9178C34.3821 32.8511 34.555 32.817 34.7296 32.8173H41.822C42.0964 32.8173 42.3595 32.7083 42.5535 32.5143C42.7475 32.3203 42.8565 32.0571 42.8565 31.7828C42.8565 31.5084 42.7475 31.2453 42.5535 31.0513C42.3595 30.8573 42.0964 30.7483 41.822 30.7483Z" fill="white"/>
<path fill-rule="evenodd" clip-rule="evenodd" d="M36.0601 35.991V40.7186C36.0601 40.993 36.169 41.2561 36.3631 41.4501C36.5571 41.6441 36.8202 41.7531 37.0945 41.7531C37.3689 41.7531 37.632 41.6441 37.826 41.4501C38.02 41.2561 38.129 40.993 38.129 40.7186V35.991C38.129 35.7167 38.02 35.4535 37.826 35.2595C37.632 35.0655 37.3689 34.9565 37.0945 34.9565C36.8202 34.9565 36.5571 35.0655 36.3631 35.2595C36.169 35.4535 36.0601 35.7167 36.0601 35.991Z" fill="white"/>
<path fill-rule="evenodd" clip-rule="evenodd" d="M39.6516 35.991V40.7186C39.6516 40.993 39.7606 41.2561 39.9546 41.4501C40.1486 41.6441 40.4117 41.7531 40.6861 41.7531C40.9605 41.7531 41.2236 41.6441 41.4176 41.4501C41.6116 41.2561 41.7206 40.993 41.7206 40.7186V35.991C41.7206 35.7167 41.6116 35.4535 41.4176 35.2595C41.2236 35.0655 40.9605 34.9565 40.6861 34.9565C40.4117 34.9565 40.1486 35.0655 39.9546 35.2595C39.7606 35.4535 39.6516 35.7167 39.6516 35.991Z" fill="white"/>
<defs>
<linearGradient id="paint0_linear_301_187" x1="29.7683" y1="-8.48694e-09" x2="30.2317" y2="60" gradientUnits="userSpaceOnUse">
<stop stop-color="#1B5A6C"/>
<stop offset="1" stop-color="#010409"/>
</linearGradient>
</defs>
</svg>

<?xml version="1.0" encoding="UTF-8"?>
<svg id="Layer_1" data-name="Layer 1" xmlns="http://www.w3.org/2000/svg" xmlns:xlink="http://www.w3.org/1999/xlink" viewBox="0 0 60 60">
  <defs>
    <linearGradient id="linear-gradient" x1="29.77" y1="142" x2="30.23" y2="82" gradientTransform="translate(0 142) scale(1 -1)" gradientUnits="userSpaceOnUse">
      <stop offset="0" stop-color="#1b5a6c"/>
      <stop offset="1" stop-color="#010409"/>
    </linearGradient>
  </defs>
  <path d="m30,60c16.57,0,30-13.43,30-30S46.57,0,30,0,0,13.43,0,30s13.43,30,30,30Z" fill="url(#linear-gradient)"/>
  <path d="m26.6,33.63v4.73c0,.35-.14.69-.39.94s-.59.39-.94.39h-4.73c-.35,0-.69-.14-.94-.39s-.39-.59-.39-.94v-4.73c0-.35.14-.69.39-.94.25-.25.59-.39.94-.39h4.73c.35,0,.69.14.94.39.25.25.39.59.39.94Zm2.07,4.73v-4.73c0-.45-.09-.89-.26-1.3-.17-.41-.42-.79-.74-1.1-.32-.32-.69-.57-1.1-.74-.41-.17-.85-.26-1.3-.26h-4.73c-.45,0-.89.09-1.3.26-.41.17-.79.42-1.1.74s-.57.69-.74,1.1c-.17.41-.26.85-.26,1.3v4.73c0,.45.09.89.26,1.3.17.41.42.79.74,1.1s.69.57,1.1.74c.41.17.85.26,1.3.26h4.73c.45,0,.89-.09,1.3-.26.41-.17.79-.42,1.1-.74.32-.32.57-.69.74-1.1.17-.41.26-.85.26-1.3Z" fill="#fff" fill-rule="evenodd"/>
  <path d="m40.79,19.44v4.73c0,.17-.03.35-.1.51-.07.16-.16.31-.29.43-.12.12-.27.22-.43.29-.16.07-.33.1-.51.1h-4.73c-.17,0-.35-.03-.51-.1-.16-.07-.31-.16-.43-.29-.12-.12-.22-.27-.29-.43-.07-.16-.1-.33-.1-.51v-4.73c0-.35.14-.69.39-.94.25-.25.59-.39.94-.39h4.73c.17,0,.35.03.51.1.16.07.31.16.43.29.12.12.22.27.29.43.07.16.1.33.1.51Zm2.07,4.73v-4.73c0-.45-.09-.89-.26-1.3-.17-.41-.42-.79-.74-1.1-.32-.32-.69-.57-1.1-.74s-.85-.26-1.3-.26h-4.73c-.45,0-.89.09-1.3.26-.41.17-.79.42-1.1.74-.32.32-.57.69-.74,1.1-.17.41-.26.85-.26,1.3v4.73c0,.45.09.89.26,1.3.17.41.42.79.74,1.1.32.32.69.57,1.1.74.41.17.85.26,1.3.26h4.73c.45,0,.89-.09,1.3-.26s.79-.42,1.1-.74c.32-.32.57-.69.74-1.1.17-.41.26-.85.26-1.3Z" fill="#fff" fill-rule="evenodd"/>
  <path d="m25.27,11.31h-7.09c-1.53,0-2.99.61-4.08,1.69-1.08,1.08-1.69,2.55-1.69,4.08v7.09c0,.27.11.54.3.73.19.19.46.3.73.3s.54-.11.73-.3.3-.46.3-.73v-7.09c0-.49.1-.97.28-1.41.19-.45.46-.86.8-1.2.34-.34.75-.62,1.2-.8.45-.19.93-.28,1.41-.28h7.09c.27,0,.54-.11.73-.3.19-.19.3-.46.3-.73s-.11-.54-.3-.73c-.19-.19-.46-.3-.73-.3Z" fill="#fff" fill-rule="evenodd"/>
  <path d="m12.41,33.63v7.09c0,1.53.61,2.99,1.69,4.08,1.08,1.08,2.55,1.69,4.08,1.69h7.09c.27,0,.54-.11.73-.3s.3-.46.3-.73-.11-.54-.3-.73-.46-.3-.73-.3h-7.09c-.49,0-.97-.1-1.41-.28-.45-.19-.86-.46-1.2-.8-.34-.34-.62-.75-.8-1.2-.19-.45-.28-.93-.28-1.41v-7.09c0-.27-.11-.54-.3-.73-.19-.19-.46-.3-.73-.3s-.54.11-.73.3c-.19.19-.3.46-.3.73Z" fill="#fff" fill-rule="evenodd"/>
  <path d="m34.73,46.48h7.09c.76,0,1.51-.15,2.21-.44.7-.29,1.33-.71,1.87-1.25.54-.54.96-1.17,1.25-1.87.29-.7.44-1.45.44-2.21v-7.09c0-.27-.11-.54-.3-.73-.19-.19-.46-.3-.73-.3s-.54.11-.73.3c-.19.19-.3.46-.3.73v7.09c0,.49-.1.97-.28,1.41-.19.45-.46.86-.8,1.2-.34.34-.75.62-1.2.8-.45.19-.93.28-1.41.28h-7.09c-.27,0-.54.11-.73.3s-.3.46-.3.73.11.54.3.73.46.3.73.3Z" fill="#fff" fill-rule="evenodd"/>
  <path d="m47.59,24.17v-7.09c0-.76-.15-1.51-.44-2.21-.29-.7-.71-1.33-1.25-1.87-.54-.54-1.17-.96-1.87-1.25-.7-.29-1.45-.44-2.21-.44h-7.09c-.27,0-.54.11-.73.3-.19.19-.3.46-.3.73s.11.54.3.73c.19.19.46.3.73.3h7.09c.49,0,.97.1,1.41.28.45.19.86.46,1.2.8.34.34.62.75.8,1.2.19.45.28.93.28,1.41v7.09c0,.27.11.54.3.73s.46.3.73.3.54-.11.73-.3.3-.46.3-.73Z" fill="#fff" fill-rule="evenodd"/>
  <rect x="31.33" y="30.23" width="11.01" height="2.07" rx="1.03" ry="1.03" fill="#fff"/>
  <rect x="31.33" y="39.68" width="11.01" height="2.07" rx="1.03" ry="1.03" fill="#fff"/>
  <rect x="31.33" y="34.96" width="4.85" height="2.07" rx="1.03" ry="1.03" fill="#fff"/>
  <rect x="37.5" y="34.96" width="4.85" height="2.07" rx="1.03" ry="1.03" fill="#fff"/>
  <circle cx="22.91" cy="21.62" r="4.56" fill="none" stroke="#fff" stroke-miterlimit="10" stroke-width="2"/>
</svg>
